svg/sport/pingpong_line.svg

<?xml version="1.0" encoding="UTF-8"?>
<svg width="24px" height="24px" viewBox="0 0 24 24" version="1.1" xmlns="http://www.w3.org/2000/svg" xmlns:xlink="http://www.w3.org/1999/xlink">
    <title>pingpong_line</title>
    <g id="Icon" stroke="none" stroke-width="1" fill="none" fill-rule="evenodd">
        <g id="Sport" transform="translate(-624.000000, 0.000000)">
            <g id="pingpong_line" transform="translate(624.000000, 0.000000)">
                <path d="M24,0 L24,24 L0,24 L0,0 L24,0 Z M12.5935,23.2578 L12.5819,23.2595 L12.5109,23.295 L12.4919,23.2987 L12.4767,23.295 L12.4057,23.2595 C12.3958,23.2564 12.387,23.259 12.3821,23.2649 L12.378,23.2758 L12.3609,23.7031 L12.3659,23.7235 L12.3769,23.7357 L12.4805,23.8097 L12.4953,23.8136 L12.5071,23.8097 L12.6107,23.7357 L12.6233,23.7197 L12.6267,23.7031 L12.6096,23.2758 C12.6076,23.2657 12.601,23.2593 12.5935,23.2578 Z M12.8584,23.1453 L12.8445,23.1473 L12.6598,23.2397 L12.6499,23.2499 L12.6472,23.2611 L12.6651,23.6906 L12.6699,23.7034 L12.6784,23.7105 L12.8793,23.8032 C12.8914,23.8069 12.9022,23.803 12.9078,23.7952 L12.9118,23.7812 L12.8777,23.1665 C12.8753,23.1546 12.8674,23.147 12.8584,23.1453 Z M12.143,23.1473 C12.1332,23.1424 12.1222,23.1453 12.1156,23.1526 L12.1099,23.1665 L12.0758,23.7812 C12.0751,23.7927 12.0828,23.8019 12.0926,23.8046 L12.1083,23.8032 L12.3092,23.7105 L12.3186,23.7024 L12.3225,23.6906 L12.3404,23.2611 L12.3372,23.2485 L12.3278,23.2397 L12.143,23.1473 Z" id="MingCute" fill-rule="nonzero"></path>
                <path d="M15.9999,3.33973 C19.8262,5.54887 21.1372,10.4416 18.9281,14.2679 C18.7575,14.5634 18.5709,14.8439 18.37,15.1089 C19.8821,15.4957 20.9999,16.8673 20.9999,18.4999 C20.9999,20.4329 19.4329,21.9999 17.4999,21.9999 C15.5669,21.9999 13.9999,20.4329 13.9999,18.4999 C13.9999,18.3318 14.0117,18.1666 14.0346,18.0048 C12.6855,18.3597 11.2438,18.3639 9.85779,17.9778 L8.23187,20.794 C7.95573,21.2723 7.34414,21.4362 6.86585,21.16 L5.1338,20.16 C4.6555,19.8839 4.49163,19.2723 4.76777,18.794 L6.39373,15.9778 C3.84968,13.4834 3.20786,9.49616 5.07167,6.26794 C7.28081,2.4416 12.1735,1.1306 15.9999,3.33973 Z M17.4999,16.9999 C16.6715,16.9999 15.9999,17.6715 15.9999,18.4999 C15.9999,19.3283 16.6715,19.9999 17.4999,19.9999 C18.3283,19.9999 18.9999,19.3283 18.9999,18.4999 C18.9999,17.6715 18.3283,16.9999 17.4999,16.9999 Z M8.66919,15.2729 L8.66045,15.4186 C8.63254,15.8835 8.49678,16.3355 8.26391,16.7388 C8.45796833,16.4027167 8.71501972,16.1080917 9.02023199,15.8707236 L9.20902,15.7353 L9.33077,15.6549 L8.66919,15.2729 Z M14.9999,5.07178 C12.1301,3.41493 8.46057,4.39818 6.80372,7.26794 C5.68872,9.19917 5.76936,11.4926 6.81597,13.2911 C6.89424,13.0483 7.06371,12.8411 7.29395,12.7172 C7.56100875,12.573525 7.87650094,12.5597766 8.15227154,12.6746818 L8.26777,12.7318 L11.7319,14.7318 C12.032,14.9051 12.221,15.2215 12.2314,15.5679 C12.2393,15.8293 12.1445,16.0797 11.9733,16.2689734 C14.0543,16.2762 16.081,15.1993 17.196,13.2679 C18.8529,10.3982 17.8696,6.72864 14.9999,5.07178 Z" id="形状" fill="#09244B"></path>
            </g>
        </g>
    </g>
</svg>

<svg xmlns="http://www.w3.org/2000/svg" width="24" height="24"><g fill="none" fill-rule="evenodd"><path d="M24 0v24H0V0h24ZM12.594 23.258l-.012.002-.071.035-.02.004-.014-.004-.071-.036c-.01-.003-.019 0-.024.006l-.004.01-.017.428.005.02.01.013.104.074.015.004.012-.004.104-.074.012-.016.004-.017-.017-.427c-.002-.01-.009-.017-.016-.018Zm.264-.113-.014.002-.184.093-.01.01-.003.011.018.43.005.012.008.008.201.092c.012.004.023 0 .029-.008l.004-.014-.034-.614c-.003-.012-.01-.02-.02-.022Zm-.715.002a.023.023 0 0 0-.027.006l-.006.014-.034.614c0 .012.007.02.017.024l.015-.002.201-.093.01-.008.003-.011.018-.43-.003-.012-.01-.01-.184-.092Z"/><path fill="#09244B" d="M16 3.34a8 8 0 0 1 2.37 11.769 3.501 3.501 0 0 1-.87 6.89 3.5 3.5 0 0 1-3.465-3.994 7.99 7.99 0 0 1-4.177-.027l-1.626 2.816a1 1 0 0 1-1.366.366l-1.732-1a1 1 0 0 1-.366-1.366l1.626-2.816A8 8 0 0 1 16 3.34ZM17.5 17a1.5 1.5 0 1 0 0 3 1.5 1.5 0 0 0 0-3Zm-8.83-1.727-.01.146a3 3 0 0 1-.396 1.32 3 3 0 0 1 .756-.868l.189-.136.122-.08-.662-.382ZM15 5.072a6 6 0 0 0-8.184 8.22 1 1 0 0 1 1.336-.617l.116.057 3.464 2a1 1 0 0 1 .241 1.537A6 6 0 0 0 15 5.072Z"/></g></svg>
